img/ico/home-advantage-discount-icon.svg

<svg width="60" height="60" viewBox="0 0 60 60" fill="none" xmlns="http://www.w3.org/2000/svg">
<circle cx="30" cy="30" r="30" fill="#FF5147"/>
<g clip-path="url(#clip0_668_3553)">
<path d="M29.3151 13.3581C30.0312 12.8828 30.9687 12.8828 31.6848 13.3581L32.8437 14.1198C33.2343 14.3737 33.6901 14.4974 34.1523 14.4714L35.539 14.3867C36.3984 14.3347 37.2057 14.8034 37.5898 15.5716L38.2148 16.8151C38.4231 17.2318 38.7617 17.5638 39.1718 17.7722L40.4283 18.4037C41.1966 18.7878 41.6653 19.5951 41.6132 20.4544L41.5286 21.8412C41.5026 22.3034 41.6263 22.7656 41.8802 23.1498L42.6484 24.3086C43.1236 25.0248 43.1236 25.9623 42.6484 26.6784L41.8802 27.8438C41.6263 28.2344 41.5026 28.6901 41.5286 29.1524L41.6132 30.5391C41.6653 31.3985 41.1966 32.2058 40.4283 32.5899L39.1848 33.2149C38.7682 33.4232 38.4361 33.7617 38.2278 34.1719L37.5963 35.4284C37.2122 36.1966 36.4049 36.6654 35.5455 36.6133L34.1588 36.5287C33.6966 36.5026 33.2343 36.6263 32.8502 36.8802L31.6914 37.6485C30.9752 38.1237 30.0377 38.1237 29.3216 37.6485L28.1562 36.8802C27.7656 36.6263 27.3098 36.5026 26.8476 36.5287L25.4609 36.6133C24.6015 36.6654 23.7942 36.1966 23.4101 35.4284L22.7851 34.1849C22.5768 33.7683 22.2382 33.4362 21.8281 33.2279L20.5716 32.5964C19.8033 32.2123 19.3346 31.405 19.3867 30.5456L19.4713 29.1589C19.4973 28.6966 19.3736 28.2344 19.1197 27.8503L18.358 26.6849C17.8828 25.9688 17.8828 25.0313 18.358 24.3151L19.1197 23.1563C19.3736 22.7656 19.4973 22.3099 19.4713 21.8477L19.3867 20.461C19.3346 19.6016 19.8033 18.7943 20.5716 18.4102L21.8151 17.7852C22.2317 17.5703 22.5703 17.2318 22.7786 16.8151L23.4036 15.5716C23.7877 14.8034 24.595 14.3347 25.4544 14.3867L26.8411 14.4714C27.3033 14.4974 27.7656 14.3737 28.1497 14.1198L29.3151 13.3581ZM35.7083 25.5C35.7083 24.1187 35.1595 22.7939 34.1828 21.8172C33.206 20.8404 31.8813 20.2917 30.4999 20.2917C29.1186 20.2917 27.7939 20.8404 26.8171 21.8172C25.8403 22.7939 25.2916 24.1187 25.2916 25.5C25.2916 26.8814 25.8403 28.2061 26.8171 29.1829C27.7939 30.1596 29.1186 30.7084 30.4999 30.7084C31.8813 30.7084 33.206 30.1596 34.1828 29.1829C35.1595 28.2061 35.7083 26.8814 35.7083 25.5ZM18.0846 41.763L20.8906 35.0899C20.9036 35.0964 20.9101 35.1029 20.9166 35.1159L21.5416 36.3594C22.3033 37.8698 23.8854 38.7878 25.5781 38.6901L26.9648 38.6055C26.9778 38.6055 26.9973 38.6055 27.0104 38.6185L28.1692 39.3867C28.5013 39.6016 28.8528 39.7709 29.2174 39.888L26.7695 45.7018C26.6197 46.0599 26.2877 46.3008 25.9036 46.3334C25.5195 46.3659 25.1484 46.1901 24.9401 45.8646L22.8437 42.655L19.1914 43.1953C18.8203 43.2474 18.4492 43.0977 18.2148 42.8047C17.9804 42.5117 17.9348 42.1081 18.0781 41.763H18.0846ZM34.2304 45.6953L31.7825 39.888C32.1471 39.7709 32.4986 39.6081 32.8307 39.3867L33.9895 38.6185C34.0026 38.612 34.0156 38.6055 34.0351 38.6055L35.4218 38.6901C37.1145 38.7878 38.6966 37.8698 39.4583 36.3594L40.0833 35.1159C40.0898 35.1029 40.0963 35.0964 40.1093 35.0899L42.9218 41.763C43.0651 42.1081 43.013 42.5052 42.7851 42.8047C42.5572 43.1042 42.1796 43.2539 41.8085 43.1953L38.1562 42.655L36.0598 45.8581C35.8515 46.1836 35.4804 46.3594 35.0963 46.3268C34.7122 46.2943 34.3802 46.0469 34.2304 45.6953Z" fill="white"/>
</g>
<defs>
<clipPath id="clip0_668_3553">
<rect width="25" height="33.3333" fill="white" transform="translate(18 13)"/>
</clipPath>
</defs>
</svg>

<svg width="60" height="60" viewBox="0 0 60 60" fill="none" xmlns="http://www.w3.org/2000/svg" class="svg-icon">
    <circle cx="30" cy="30" r="30" fill="currentColor" />
    <path
        d="M29.315 13.358a2.15 2.15 0 0 1 2.37 0l1.159.762c.39.254.846.377 1.308.351l1.387-.084a2.15 2.15 0 0 1 2.05 1.185l.626 1.243c.208.417.547.749.957.957l1.256.632a2.15 2.15 0 0 1 1.185 2.05l-.084 1.387a2.16 2.16 0 0 0 .351 1.309l.768 1.159a2.15 2.15 0 0 1 0 2.37l-.768 1.165c-.254.39-.377.846-.351 1.308l.084 1.387a2.15 2.15 0 0 1-1.185 2.05l-1.243.626a2.16 2.16 0 0 0-.957.957l-.632 1.256a2.15 2.15 0 0 1-2.05 1.185l-1.387-.084a2.16 2.16 0 0 0-1.309.351l-1.159.768a2.15 2.15 0 0 1-2.37 0l-1.165-.768a2.17 2.17 0 0 0-1.308-.351l-1.387.084a2.15 2.15 0 0 1-2.05-1.185l-.626-1.243a2.16 2.16 0 0 0-.957-.957l-1.256-.632a2.15 2.15 0 0 1-1.185-2.05l.084-1.387a2.16 2.16 0 0 0-.351-1.309l-.762-1.165a2.15 2.15 0 0 1 0-2.37l.762-1.159c.254-.39.377-.846.351-1.308l-.084-1.387a2.15 2.15 0 0 1 1.185-2.05l1.243-.626c.417-.215.755-.553.964-.97l.625-1.243a2.15 2.15 0 0 1 2.05-1.185l1.387.084a2.16 2.16 0 0 0 1.309-.351zM35.708 25.5a5.208 5.208 0 1 0-10.417 0 5.208 5.208 0 0 0 10.417 0M18.085 41.763l2.806-6.673a.05.05 0 0 1 .026.026l.625 1.243a4.25 4.25 0 0 0 4.036 2.331l1.387-.084c.013 0 .032 0 .045.012l1.16.769a4.4 4.4 0 0 0 1.047.501l-2.447 5.814a1.03 1.03 0 0 1-.866.631 1.03 1.03 0 0 1-.964-.468l-2.096-3.21-3.653.54a1.06 1.06 0 0 1-.976-.39 1.04 1.04 0 0 1-.137-1.042zm16.145 3.932-2.447-5.807c.364-.117.716-.28 1.048-.501l1.158-.769c.014-.006.027-.013.046-.013l1.387.085a4.25 4.25 0 0 0 4.036-2.33l.625-1.244a.05.05 0 0 1 .026-.026l2.813 6.673c.143.345.091.742-.137 1.042s-.605.449-.976.39l-3.653-.54-2.096 3.203a1.041 1.041 0 0 1-1.83-.163"
        fill="#fff" />
</svg>
